X:3
T:Don't Get Around Much Anymore
C:Duke Ellington
L:1/8
M:C
I:linebreak $
K:C
z e2 d cGFE- |:"C" E4"Dm" x4"D#m" z4 "Em" x4|"NC" z e2 d cGFE- |"A7" E8 |$"A7" z G2 F EDCc- |
"Am" c3 A-"D7" A4 |"G7" z EF^F G C^DE ||1"C" C8 |"G7" z e2 d cGFE :|2$"C" C8- |"C7" C6 z2 ||
"F" d4 c A2 c- |"Fm" c6 c2 |"Em" d4 c"C" G2 E- |"C7" E4-"C+" E c3 |$"D7" d4 c A2 c- |
"F#ø" c8 "B7" x4|"Em" z BBB"D7" B A2 G- |"G7" G e2 d cGFE |"C" E4"Dm" x4"D#m" z4 "Em" x4|$
"NC" z e2 d cGFE- |"A7" E8 |"A7" z G2 F EDCc- |"Am" c3 A-"D7" A4 |"G7" z EF^F GC^DE |"C" C8 |]]

